X:4540
L:1/16
Q:1/4=90
M:3/4
K:Emin
"_Two sharps in book" ef | g2 e4 dc (B2cd) | e2 E4 FG (A2Bc) | (B2ed) (cB)(AG) (FG)(AF) | 
 G2 E4 B2 e2 || gf | e2 g4 fe (de)(dc) | B2 d4 de (dc)(BA) | (GB)d2 Bdg2 dgb2 | g2 d4 (ga) bagf | 
 e2 g4 (fg) agfd | ^d2 f4 (gf) (e2dc) | (B2ed) (cB)(AG) FGAF | G2 E4 B2 e2 |]

